X:8161
T:John Stewart's
T:Spey in Spate, The
C:James Scott Skinner (1843-1927)
R:reel
S:Tommy McCarthy & Louise Costelloe
H:A version of the Scottish reel "The Spey in Spate"
D:Paddy Glackin: In Full Spate
Z:id:hn-reel-506
M:C|
K:D
D2FD A,DFA|dcBA ^GAFD|EFGE B,EGB|gecA GECE|
D2FD A,DFA|dDcD BDAf|(3gfe fd ecdB|1 AFGE DA,B,C:|2 AFGE DEFA||
defd AF~F2|DFAd fagf|ebge BGED|CEAc egfe|
defd BAFA|dDcD BAAf|(3gfe fd ecdB|AFGE DEFA|
d2fd AF~F2|DFAd fagf|~e3f ~g3a|bagf eAce|
defd BAFA|dDcD BAAf|(3gfe fd ecdB|AFGE DA,B,C||
